src/components/atomic/Icon/icons/voltz.svg

<svg fill="none" viewBox="0 0 20 30" xmlns="http://www.w3.org/2000/svg">
  <g clip-rule="evenodd" fill="#e5e1f9" fill-rule="evenodd">
    <path d="m3.57947 8.06724 1.3754-2.01681h2.14346l-1.3754 2.01681zm7.45873-2.01681v1.74519h5.9029v.27162h-7.67371v-2.01681z"/>
    <path d="m15.7288 12.1009-1.3423 2.0168h-2.1273l1.3424-2.0168zm-12.75652 0h-1.96868v2.0168h6.49309v-.7015-.8854h-.88543-3.93215z"/>
    <path d="m5.72589 20.1681v-2.0168h1.77086v2.0168zm5.97601-2.0168-1.3423 2.0168h-2.12726l1.34232-2.0168z"/>
    <path d="m12.2124 2.86987v-2.86986237l-1.617 2.37099237-4.46642 6.5493h2.14339l-1.37541 2.0168h-2.14339l-1.08682 1.5937h2.14346l4.63129-6.79107v3.18057h1.7708v1.7452h.0001zm-10.76643 12.91733 1.13855-1.6695h2.14346l-.87493 1.2829h3.93216.88543v.8854 2.4698l-.94001 1.4123h.94001v3.9751l7.79166-11.7068h-1.4584l.2233-.3355h-2.1272l-.2233.3355h-1.5498-.8854v-.8855-.6138h7.6736v-.2716h.0001 1.6529l-.9158 1.376-10.33 15.5207-1.62252 2.4378v-2.9284-6.9035h.09526v-2.0168h-.09526v-.9798h-4.72229-1.675567z"/>
    <path d="m3.07812 8.06723 1.37541-2.01681h2.14346l-1.37541 2.01681zm7.45878-2.01681v1.7452h5.9029v.27161h-7.67375v-2.01681z"/>
    <path d="m15.2271 12.1009-1.3423 2.0168h-2.1272l1.3423-2.0168zm-12.75647 0h-1.968829v2.0168h6.493239v-.7015-.8854h-.88543-3.93215z"/>
    <path d="m5.22409 20.1681v-2.0168h1.77086v2.0168zm5.97601-2.0168-1.34233 2.0168h-2.12723l1.34232-2.0168z"/>
    <path d="m11.7104 2.86986v-2.86986l-1.6169 2.37099-4.46644 6.5493h2.14339l-1.37541 2.01681h-2.14339l-1.08682 1.5937h2.14346l4.63128-6.79108v3.18057h1.77083v1.74521zm-10.766348 12.91734 1.138538-1.6695h2.14346l-.87492 1.2829h3.93215.88543v.8854 2.47l-.93985 1.4121h.93985v3.9751l7.79169-11.7069h-1.4584l.2232-.3354h-2.1272l-.2233.3354h-1.5497-.88543v-.8854-.6138h7.67363v-.2716h.0001 1.6529l-.9158 1.376-10.33002 15.5207-1.62252 2.4378v-2.9284-6.9035h.09541v-2.0168h-.09541v-.9798h-4.72229-1.67557z"/>
    <path d="m3.57947 8.06724 1.3754-2.01681h2.14346l-1.3754 2.01681zm7.45873-2.01681v1.74519h5.9029v.27162h-7.67371v-2.01681z"/>
    <path d="m15.7288 12.1009-1.3423 2.0168h-2.1273l1.3424-2.0168zm-12.75652 0h-1.96868v2.0168h6.49309v-.7015-.8854h-.88543-3.93215z"/>
    <path d="m5.72589 20.1681v-2.0168h1.77086v2.0168zm5.97601-2.0168-1.3423 2.0168h-2.12726l1.34232-2.0168z"/>
    <path d="m12.2124 2.86987v-2.86986237l-1.617 2.37099237-4.46642 6.5493h2.14339l-1.37541 2.0168h-2.14339l-1.08682 1.5937h2.14346l4.63129-6.79107v3.18057h1.7708v1.7452h.0001zm-10.76643 12.91733 1.13855-1.6695h2.14346l-.87493 1.2829h3.93216.88543v.8854 2.4698l-.94001 1.4123h.94001v3.9751l7.79166-11.7068h-1.4584l.2233-.3355h-2.1272l-.2233.3355h-1.5498-.8854v-.8855-.6138h7.6736v-.2716h.0001 1.6529l-.9158 1.376-10.33 15.5207-1.62252 2.4378v-2.9284-6.9035h.09526v-2.0168h-.09526v-.9798h-4.72229-1.675567z"/>
    <path d="m3.07812 8.06723 1.37541-2.01681h2.14346l-1.37541 2.01681zm7.45878-2.01681v1.7452h5.9029v.27161h-7.67375v-2.01681z"/>
    <path d="m15.2271 12.1009-1.3423 2.0168h-2.1272l1.3423-2.0168zm-12.75647 0h-1.968829v2.0168h6.493239v-.7015-.8854h-.88543-3.93215z"/>
    <path d="m5.22409 20.1681v-2.0168h1.77086v2.0168zm5.97601-2.0168-1.34233 2.0168h-2.12723l1.34232-2.0168z"/>
    <path d="m11.7104 2.86986v-2.86986l-1.6169 2.37099-4.46644 6.5493h2.14339l-1.37541 2.01681h-2.14339l-1.08682 1.5937h2.14346l4.63128-6.79108v3.18057h1.77083v1.74521zm-10.766348 12.91734 1.138538-1.6695h2.14346l-.87492 1.2829h3.93215.88543v.8854 2.47l-.93985 1.4121h.93985v3.9751l7.79169-11.7069h-1.4584l.2232-.3354h-2.1272l-.2233.3354h-1.5497-.88543v-.8854-.6138h7.67363v-.2716h.0001 1.6529l-.9158 1.376-10.33002 15.5207-1.62252 2.4378v-2.9284-6.9035h.09541v-2.0168h-.09541v-.9798h-4.72229-1.67557z"/>
  </g>
</svg>

<svg width="20" height="30" viewBox="0 0 20 30" fill="none" xmlns="http://www.w3.org/2000/svg">
    <path fill-rule="evenodd" clip-rule="evenodd" d="M3.57959 8.06723L4.955 6.05042H7.09845L5.72305 8.06723H3.57959ZM11.0384 6.05042V7.79561H16.9412L16.9412 8.06723H9.26751V6.05042H11.0384Z" fill="#E5E1F9"/>
    <path fill-rule="evenodd" clip-rule="evenodd" d="M15.7286 12.1008L14.3863 14.1176H12.2591L13.6014 12.1008H15.7286ZM2.97209 12.1008H1.00342V14.1176H7.49651V13.4161V12.5307H6.61108H2.67892L2.97209 12.1008Z" fill="#E5E1F9"/>
    <path fill-rule="evenodd" clip-rule="evenodd" d="M5.72607 20.1681V18.1512H7.49693V20.1681H5.72607ZM11.7021 18.1512L10.3598 20.1681H8.23253L9.57484 18.1512H11.7021Z" fill="#E5E1F9"/>
    <path fill-rule="evenodd" clip-rule="evenodd" d="M12.2124 2.86986V0L10.5954 2.37099L6.12901 8.92029H8.2724L6.89699 10.9371H4.7536L3.66678 12.5308H5.81024L10.4415 5.73972V8.92029H12.2123V10.6655L12.2124 10.6655V2.86986ZM1.446 15.7872L2.58455 14.1177H4.72801L3.85308 15.4006H7.78524H8.67067V16.286V18.7558L7.73066 20.1681H8.67067V24.1432L16.4623 12.4363H15.004L15.2273 12.1009H13.1L12.8767 12.4363H11.327H10.4415V11.5509V10.9371H18.1152L18.1152 10.6655L18.1152 10.6655H19.7682L18.8523 12.0415L8.52233 27.5622L6.89981 30V27.0716V20.1681H6.99507V18.1513H6.89981V17.1715H2.17752H0.501953L1.446 15.7872Z" fill="#E5E1F9"/>
    <path fill-rule="evenodd" clip-rule="evenodd" d="M3.07812 8.06723L4.45353 6.05042H6.59699L5.22158 8.06723H3.07812ZM10.5369 6.05042V7.79561H16.4398L16.4398 8.06723H8.76605V6.05042H10.5369Z" fill="#E5E1F9"/>
    <path fill-rule="evenodd" clip-rule="evenodd" d="M15.2273 12.1008L13.885 14.1176H11.7577L13.1001 12.1008H15.2273ZM2.47078 12.1008H0.501953V14.1176H6.99519V13.4161V12.5307H6.10976H2.17761L2.47078 12.1008Z" fill="#E5E1F9"/>
    <path fill-rule="evenodd" clip-rule="evenodd" d="M5.22412 20.1681V18.1512H6.99498V20.1681H5.22412ZM11.2001 18.1512L9.8578 20.1681H7.73057L9.07289 18.1512H11.2001Z" fill="#E5E1F9"/>
    <path fill-rule="evenodd" clip-rule="evenodd" d="M11.7104 2.86986V0L10.0935 2.37099L5.62706 8.92029H7.77045L6.39504 10.9371H4.25165L3.16483 12.5308H5.30829L9.93957 5.73972V8.92029H11.7104V10.6655L11.7104 10.6655V2.86986ZM0.944052 15.7872L2.08259 14.1177H4.22605L3.35113 15.4006H7.28328H8.16871V16.286V18.756L7.22886 20.1681H8.16871V24.1432L15.9604 12.4363H14.502L14.7252 12.1009H12.598L12.3747 12.4363H10.825H9.93957V11.5509V10.9371H17.6132L17.6132 10.6655L17.6133 10.6655H19.2662L18.3504 12.0415L8.02038 27.5622L6.39786 30V27.0716V20.1681H6.49327V18.1513H6.39786V17.1715H1.67557H0L0.944052 15.7872Z" fill="#E5E1F9"/>
    <path fill-rule="evenodd" clip-rule="evenodd" d="M3.57959 8.06723L4.955 6.05042H7.09845L5.72305 8.06723H3.57959ZM11.0384 6.05042V7.79561H16.9412L16.9412 8.06723H9.26751V6.05042H11.0384Z" fill="#E5E1F9"/>
    <path fill-rule="evenodd" clip-rule="evenodd" d="M15.7286 12.1008L14.3863 14.1176H12.2591L13.6014 12.1008H15.7286ZM2.97209 12.1008H1.00342V14.1176H7.49651V13.4161V12.5307H6.61108H2.67892L2.97209 12.1008Z" fill="#E5E1F9"/>
    <path fill-rule="evenodd" clip-rule="evenodd" d="M5.72607 20.1681V18.1512H7.49693V20.1681H5.72607ZM11.7021 18.1512L10.3598 20.1681H8.23253L9.57484 18.1512H11.7021Z" fill="#E5E1F9"/>
    <path fill-rule="evenodd" clip-rule="evenodd" d="M12.2124 2.86986V0L10.5954 2.37099L6.12901 8.92029H8.2724L6.89699 10.9371H4.7536L3.66678 12.5308H5.81024L10.4415 5.73972V8.92029H12.2123V10.6655L12.2124 10.6655V2.86986ZM1.446 15.7872L2.58455 14.1177H4.72801L3.85308 15.4006H7.78524H8.67067V16.286V18.7558L7.73066 20.1681H8.67067V24.1432L16.4623 12.4363H15.004L15.2273 12.1009H13.1L12.8767 12.4363H11.327H10.4415V11.5509V10.9371H18.1152L18.1152 10.6655L18.1152 10.6655H19.7682L18.8523 12.0415L8.52233 27.5622L6.89981 30V27.0716V20.1681H6.99507V18.1513H6.89981V17.1715H2.17752H0.501953L1.446 15.7872Z" fill="#E5E1F9"/>
    <path fill-rule="evenodd" clip-rule="evenodd" d="M3.07812 8.06723L4.45353 6.05042H6.59699L5.22158 8.06723H3.07812ZM10.5369 6.05042V7.79561H16.4398L16.4398 8.06723H8.76605V6.05042H10.5369Z" fill="#E5E1F9"/>
    <path fill-rule="evenodd" clip-rule="evenodd" d="M15.2273 12.1008L13.885 14.1176H11.7577L13.1001 12.1008H15.2273ZM2.47078 12.1008H0.501953V14.1176H6.99519V13.4161V12.5307H6.10976H2.17761L2.47078 12.1008Z" fill="#E5E1F9"/>
    <path fill-rule="evenodd" clip-rule="evenodd" d="M5.22412 20.1681V18.1512H6.99498V20.1681H5.22412ZM11.2001 18.1512L9.8578 20.1681H7.73057L9.07289 18.1512H11.2001Z" fill="#E5E1F9"/>
    <path fill-rule="evenodd" clip-rule="evenodd" d="M11.7104 2.86986V0L10.0935 2.37099L5.62706 8.92029H7.77045L6.39504 10.9371H4.25165L3.16483 12.5308H5.30829L9.93957 5.73972V8.92029H11.7104V10.6655L11.7104 10.6655V2.86986ZM0.944052 15.7872L2.08259 14.1177H4.22605L3.35113 15.4006H7.28328H8.16871V16.286V18.756L7.22886 20.1681H8.16871V24.1432L15.9604 12.4363H14.502L14.7252 12.1009H12.598L12.3747 12.4363H10.825H9.93957V11.5509V10.9371H17.6132L17.6132 10.6655L17.6133 10.6655H19.2662L18.3504 12.0415L8.02038 27.5622L6.39786 30V27.0716V20.1681H6.49327V18.1513H6.39786V17.1715H1.67557H0L0.944052 15.7872Z" fill="#E5E1F9"/>
</svg>
